X:454
T: VATER NOAH WEINERFINDER
N: E1695
O: Europa, Mitteleuropa, Deutschland
R: Staende -, Studenten - Lied, Trink - Lied
M: 2/4
L: 1/8
K: G
 | G3A | B2B2 | AGAB | G2D2 |
B3c | d2d2 | cBcd | B2z2 |
G3A | B2B2 | AGAB | G2D2 |
B3c | d2d2 | cBcd | B2z2 |
d2d2 | e2ed | c2c2 | d2z2 |
G3A | B2c2 | d2d2 | G2z2

@@@ Tune index: 5138
